X:458
T:»All-valsen.»
R:vals
N:Melodin skall imitera alfågelns sång;
S:uppt. efter föresjungning av Lars Thomasson, Hägvalls i Linde.
O:Gotland, Linde
M:3/4
L:1/8
K:F
C2|F3 AcA|F3 AcA|C3 EGE|FEFA c>A|F3 AcA|F3 AcA|C3 EGE|F2 z2 c2|f3 ac'a|f3 ac'a|c3 ege|fefac'>a|f3 ac'a|f3 ac'a|c3 ege|f4|:
c2|d3 Bfd|c3 Adc|B3 GcB|(AG)(AB) c2|d3 Bdf|c3 Acf|(ec)(BG) (EC)|F4::(AB)|ca f2 (AB)|ca f2 A2|(Ge)(Ge)(Ge)|(gf)(ed)(c=B)|
ca f2 AB|ca f2 A2|(Ge)(Ge)(Ge)|f4|:A2|(BG)(cG)(eG)|gfedcA|(cB)(dc)(ed)|bgecBG|Aa f2 (AB)|ca f2 A2|(Ge)(Ge)(Ge)|f4:|

